svg/u1f250.svg

<svg viewBox="0 0 128 128" xmlns="http://www.w3.org/2000/svg">
  <g>
    <circle cx="63.93" cy="64" r="60" fill="#CC3333"/>
    <circle cx="60.03" cy="63.1" r="56.1" fill="#F44336"/>
    <path d="M23.93,29.7c4.5-7.1,14.1-13,24.1-14.8 c2.5-0.4,5-0.6,7.1,0.2c1.6,0.6,2.9,2.1,2,3.8c-0.7,1.4-2.6,2-4.1,2.5c-9.38,3.1-17.47,9.21-23,17.4c-2,3-5,11.3-8.7,9.2 C17.43,45.7,18.23,38.5,23.93,29.7z" opacity="0.65" fill="#FF8A80" enable-background="new "/>
    <path d="M48.13,47.2c-1.8,2.8-3.8,5.7-5.9,8.5c-0.28,0.34-0.42,0.76-0.4,1.2v45.8c0,1.1-0.9,2-2,2h-4.1 c-1.1,0-2-0.9-2-2V70.4c-0.02-1.1-0.92-1.99-2.03-1.97c-0.51,0.01-1.01,0.21-1.37,0.57c-1.3,1.3-2.7,2.4-4,3.6 c-0.85,0.71-2.11,0.6-2.82-0.25c-0.11-0.14-0.21-0.29-0.28-0.45c-0.7-1.4-1.5-3.1-2.3-4.5c-0.51-0.87-0.3-1.98,0.5-2.6 c7.7-5.86,14.33-12.99,19.6-21.1c0.52-0.85,1.58-1.19,2.5-0.8l3.6,1.5c0.99,0.33,1.52,1.4,1.19,2.39 C48.27,46.94,48.21,47.07,48.13,47.2z M46.53,28c-5.45,6.93-11.84,13.06-19,18.2c-0.89,0.65-2.14,0.45-2.79-0.44 c-0.04-0.05-0.07-0.11-0.11-0.16c-0.6-1.1-1.4-2.3-2.1-3.4c-0.6-0.92-0.38-2.15,0.5-2.8c6-4.2,12.4-10.1,16.1-15.4 c0.5-0.75,1.46-1.04,2.3-0.7l4.1,1.6c1.05,0.33,1.64,1.46,1.3,2.51C46.76,27.62,46.66,27.82,46.53,28z M101.13,80.9h-8.8 c-1.1,0-2,0.9-2,2v13.2c0,4.1-0.8,6.2-3.8,7.3c-2.7,1.2-6.5,1.3-12.1,1.3c-0.87,0-1.64-0.57-1.9-1.4c-0.3-1-0.7-2.2-1.1-3.3 c-0.39-1.03,0.14-2.19,1.17-2.57c0.23-0.09,0.48-0.13,0.73-0.13c3.2,0.1,5.9,0.1,6.9,0c1.3-0.1,1.7-0.4,1.7-1.4v-13 c0-1.1-0.9-2-2-2h-30.5c-1.1,0-2-0.9-2-2v-3.2c0-1.1,0.9-2,2-2h30.5c1.1,0,2-0.9,2-2v-2.6c0-1.1-0.9-2-2-2h-28.3c-1.1,0-2-0.9-2-2 v-2.9c0-1.1,0.9-2,2-2h47.8c1.1,0,2,0.9,2,2v2.9c0,1.1-0.9,2-2,2h-7.1c-1.1,0-2,0.9-2,2v2.6c0,1.1,0.9,2,2,2h8.8c1.1,0,2,0.9,2,2 v3.2c0.03,1.07-0.81,1.97-1.88,2C101.21,80.9,101.17,80.9,101.13,80.9z M61.43,82.6c3.11,2.87,5.98,5.98,8.6,9.3 c0.67,0.84,0.53,2.06-0.3,2.73c-0.03,0.03-0.06,0.05-0.1,0.07l-3,2.1c-0.9,0.64-2.15,0.42-2.79-0.48c0-0.01-0.01-0.01-0.01-0.02 c-2.42-3.28-5.06-6.38-7.9-9.3c-0.79-0.82-0.76-2.11,0.06-2.9c0.08-0.07,0.16-0.14,0.24-0.2l2.6-1.7 C59.69,81.77,60.73,81.93,61.43,82.6z M95.83,55.2h-39.2c-1.1,0-2-0.9-2-2v-26c0-1.1,0.9-2,2-2h39.2c1.1,0,2,0.9,2,2v26 C97.83,54.31,96.93,55.2,95.83,55.2z M87.43,31.3h-22.7c-1.1,0-2,0.9-2,2v2c0,1.1,0.9,2,2,2h22.7c1.1,0,2-0.9,2-2v-2 C89.43,32.2,88.53,31.3,87.43,31.3z M87.43,43h-22.7c-1.1,0-2,0.9-2,2v2c0,1.1,0.9,2,2,2h22.7c1.1,0,2-0.9,2-2v-2 C89.43,43.9,88.53,43,87.43,43z" fill="#FAFAFA"/>
    <path d="M23.93,29.7c4.5-7.1,14.1-13,24.1-14.8 c2.5-0.4,5-0.6,7.1,0.2c1.6,0.6,2.9,2.1,2,3.8c-0.7,1.4-2.6,2-4.1,2.5c-9.38,3.1-17.47,9.21-23,17.4c-2,3-5,11.3-8.7,9.2 C17.43,45.7,18.23,38.5,23.93,29.7z" opacity="0.3" fill="#FF8A80" enable-background="new "/>
  </g>
</svg>

<svg viewBox="0 0 128 128" xmlns="http://www.w3.org/2000/svg">
  <defs/>
  <path d="M123.93,64 A60 60 0 1 1 3.93,64 A60 60 0 1 1 123.93,64 Z" fill="#CC3333"/>
  <path d="M116.13,63.1 A56.1 56.1 0 1 1 3.93,63.1 A56.1 56.1 0 1 1 116.13,63.1 Z" fill="#F44336"/>
  <path d="M23.93,29.7 C28.43,22.6 38.03,16.7 48.03,14.9 C50.53,14.5 53.03,14.3 55.13,15.1 C56.73,15.7 58.03,17.2 57.13,18.9 C56.43,20.3 54.53,20.9 53.03,21.4 C43.65,24.5 35.56,30.61 30.03,38.8 C28.03,41.8 25.03,50.1 21.33,48 C17.43,45.7 18.23,38.5 23.93,29.7 Z" fill="#FF8A80" opacity="0.65"/>
  <path d="M48.13,47.2 C46.33,50 44.33,52.9 42.23,55.7 C41.95,56.04 41.81,56.46 41.83,56.9 L41.83,102.7 C41.83,103.8 40.93,104.7 39.83,104.7 L35.73,104.7 C34.63,104.7 33.73,103.8 33.73,102.7 L33.73,70.4 C33.71,69.3 32.81,68.41 31.7,68.43 C31.19,68.44 30.69,68.64 30.33,69 C29.03,70.3 27.63,71.4 26.33,72.6 C25.48,73.31 24.22,73.2 23.51,72.35 C23.4,72.21 23.3,72.06 23.23,71.9 C22.53,70.5 21.73,68.8 20.93,67.4 C20.42,66.53 20.63,65.42 21.43,64.8 C29.13,58.94 35.76,51.81 41.03,43.7 C41.55,42.85 42.61,42.51 43.53,42.9 L47.13,44.4 C48.12,44.73 48.65,45.8 48.32,46.79 C48.27,46.94 48.21,47.07 48.13,47.2 Z M46.53,28 C41.08,34.93 34.69,41.06 27.53,46.2 C26.64,46.85 25.39,46.65 24.74,45.76 C24.7,45.71 24.67,45.65 24.63,45.6 C24.03,44.5 23.23,43.3 22.53,42.2 C21.93,41.28 22.15,40.05 23.03,39.4 C29.03,35.2 35.43,29.3 39.13,24 C39.63,23.25 40.59,22.96 41.43,23.3 L45.53,24.9 C46.58,25.23 47.17,26.36 46.83,27.41 C46.76,27.62 46.66,27.82 46.53,28 Z M101.13,80.9 L92.33,80.9 C91.23,80.9 90.33,81.8 90.33,82.9 L90.33,96.1 C90.33,100.2 89.53,102.3 86.53,103.4 C83.83,104.6 80.03,104.7 74.43,104.7 C73.56,104.7 72.79,104.13 72.53,103.3 C72.23,102.3 71.83,101.1 71.43,100 C71.04,98.97 71.57,97.81 72.6,97.43 C72.83,97.34 73.08,97.3 73.33,97.3 C76.53,97.4 79.23,97.4 80.23,97.3 C81.53,97.2 81.93,96.9 81.93,95.9 L81.93,82.9 C81.93,81.8 81.03,80.9 79.93,80.9 L49.43,80.9 C48.33,80.9 47.43,80 47.43,78.9 L47.43,75.7 C47.43,74.6 48.33,73.7 49.43,73.7 L79.93,73.7 C81.03,73.7 81.93,72.8 81.93,71.7 L81.93,69.1 C81.93,68 81.03,67.1 79.93,67.1 L51.63,67.1 C50.53,67.1 49.63,66.2 49.63,65.1 L49.63,62.2 C49.63,61.1 50.53,60.2 51.63,60.2 L99.43,60.2 C100.53,60.2 101.43,61.1 101.43,62.2 L101.43,65.1 C101.43,66.2 100.53,67.1 99.43,67.1 L92.33,67.1 C91.23,67.1 90.33,68 90.33,69.1 L90.33,71.7 C90.33,72.8 91.23,73.7 92.33,73.7 L101.13,73.7 C102.23,73.7 103.13,74.6 103.13,75.7 L103.13,78.9 C103.16,79.97 102.32,80.87 101.25,80.9 C101.21,80.9 101.17,80.9 101.13,80.9 Z M61.43,82.6 C64.54,85.47 67.41,88.58 70.03,91.9 C70.7,92.74 70.56,93.96 69.73,94.63 C69.7,94.66 69.67,94.68 69.63,94.7 L66.63,96.8 C65.73,97.44 64.48,97.22 63.84,96.32 C63.84,96.31 63.83,96.31 63.83,96.3 C61.41,93.02 58.77,89.92 55.93,87 C55.14,86.18 55.17,84.89 55.99,84.1 C56.07,84.03 56.15,83.96 56.23,83.9 L58.83,82.2 C59.69,81.77 60.73,81.93 61.43,82.6 Z M95.83,55.2 L56.63,55.2 C55.53,55.2 54.63,54.3 54.63,53.2 L54.63,27.2 C54.63,26.1 55.53,25.2 56.63,25.2 L95.83,25.2 C96.93,25.2 97.83,26.1 97.83,27.2 L97.83,53.2 C97.83,54.31 96.93,55.2 95.83,55.2 Z M87.43,31.3 L64.73,31.3 C63.63,31.3 62.73,32.2 62.73,33.3 L62.73,35.3 C62.73,36.4 63.63,37.3 64.73,37.3 L87.43,37.3 C88.53,37.3 89.43,36.4 89.43,35.3 L89.43,33.3 C89.43,32.2 88.53,31.3 87.43,31.3 Z M87.43,43 L64.73,43 C63.63,43 62.73,43.9 62.73,45 L62.73,47 C62.73,48.1 63.63,49 64.73,49 L87.43,49 C88.53,49 89.43,48.1 89.43,47 L89.43,45 C89.43,43.9 88.53,43 87.43,43 Z" fill="#FAFAFA"/>
  <path d="M23.93,29.7 C28.43,22.6 38.03,16.7 48.03,14.9 C50.53,14.5 53.03,14.3 55.13,15.1 C56.73,15.7 58.03,17.2 57.13,18.9 C56.43,20.3 54.53,20.9 53.03,21.4 C43.65,24.5 35.56,30.61 30.03,38.8 C28.03,41.8 25.03,50.1 21.33,48 C17.43,45.7 18.23,38.5 23.93,29.7 Z" fill="#FF8A80" opacity="0.3"/>
</svg>
